src/css/svg/paperplane.svg

<!-- Generated by IcoMoon.io -->
<svg version="1.1" xmlns="http://www.w3.org/2000/svg" width="32" height="32" viewBox="0 0 32 32">
<title>paperplane</title>
<path d="M31.543 0.16c-0.166-0.107-0.355-0.16-0.543-0.16-0.193 0-0.387 0.055-0.555 0.168l-30 20c-0.309 0.205-0.479 0.566-0.439 0.936 0.038 0.369 0.278 0.688 0.623 0.824l7.824 3.131 3.679 6.438c0.176 0.309 0.503 0.5 0.857 0.504 0.004 0 0.007 0 0.011 0 0.351 0 0.677-0.186 0.857-0.486l2.077-3.463 9.695 3.877c0.119 0.048 0.244 0.071 0.371 0.071 0.17 0 0.338-0.043 0.49-0.129 0.264-0.148 0.445-0.408 0.496-0.707l5-30c0.065-0.393-0.109-0.787-0.443-1.004zM3.136 20.777l23.175-15.451-16.85 18.037c-0.089-0.053-0.168-0.123-0.266-0.162l-6.059-2.424zM10.189 24.066c-0.002-0.004-0.005-0.006-0.007-0.010l18.943-20.275-16.149 25.162-2.787-4.877zM25.217 29.609l-8.541-3.416c-0.203-0.080-0.414-0.107-0.623-0.119l13.152-20.388-3.988 23.923z"></path>
</svg>

<svg xmlns="http://www.w3.org/2000/svg" width="32" height="32" viewBox="0 0 32 32"><title>paperplane</title><path d="M31.543.16a1.002 1.002 0 0 0-1.098.008l-30 20a.995.995 0 0 0-.439.936.995.995 0 0 0 .623.824l7.824 3.131 3.679 6.438a1 1 0 0 0 .857.504H13c.351 0 .677-.186.857-.486l2.077-3.463 9.695 3.877a.992.992 0 0 0 .861-.058c.264-.148.445-.408.496-.707l5-30A1.002 1.002 0 0 0 31.543.16zM3.136 20.777L26.311 5.326 9.461 23.363c-.089-.053-.168-.123-.266-.162l-6.059-2.424zm7.053 3.289l-.007-.01L29.125 3.781 12.976 28.943l-2.787-4.877zm15.028 5.543l-8.541-3.416a1.987 1.987 0 0 0-.623-.119L29.205 5.686l-3.988 23.923z"/></svg>
